X: 26664
T: Midnight Howl
R: jig
M: 6/8
K: Bminor
|:Bcd fed|cAF cAF|GAB dcB|Ace dcA|
Bcd fed|cAF cAF|GAB ABc|1 d2B B2A:|2 d2B B2c||
|:def afd|ecA ecA|GAB gfe|cde ABc|
def afd|ecA ecA|GAB ABc|1 d2B B2c:|2 d2B B2A||

